ix/security-safe_bold.svg

<svg viewBox="0 0 24 24" fill="none" xmlns="http://www.w3.org/2000/svg" height="1em" width="1em">
  <path d="M20.9098 11.1203V6.73031C20.9098 5.91031 20.2898 4.98031 19.5198 4.67031L13.9498 2.39031C12.6998 1.88031 11.2898 1.88031 10.0398 2.39031L4.46984 4.67031C3.70984 4.98031 3.08984 5.91031 3.08984 6.73031V11.1203C3.08984 16.0103 6.63984 20.5903 11.4898 21.9303C11.8198 22.0203 12.1798 22.0203 12.5098 21.9303C17.3598 20.5903 20.9098 16.0103 20.9098 11.1203ZM12.7498 12.8703V15.5003C12.7498 15.9103 12.4098 16.2503 11.9998 16.2503C11.5898 16.2503 11.2498 15.9103 11.2498 15.5003V12.8703C10.2398 12.5503 9.49984 11.6103 9.49984 10.5003C9.49984 9.12031 10.6198 8.00031 11.9998 8.00031C13.3798 8.00031 14.4998 9.12031 14.4998 10.5003C14.4998 11.6203 13.7598 12.5503 12.7498 12.8703Z" fill="#292D32"/>
</svg>

<svg viewBox="0 0 24 24" fill="none" xmlns="http://www.w3.org/2000/svg" height="1em" width="1em">
  <path d="M20.91 11.12V6.73c0-.82-.62-1.75-1.39-2.06l-5.57-2.28a5.187 5.187 0 0 0-3.91 0L4.47 4.67c-.76.31-1.38 1.24-1.38 2.06v4.39c0 4.89 3.55 9.47 8.4 10.81.33.09.69.09 1.02 0 4.85-1.34 8.4-5.92 8.4-10.81Zm-8.16 1.75v2.63c0 .41-.34.75-.75.75s-.75-.34-.75-.75v-2.63A2.497 2.497 0 0 1 9.5 10.5a2.5 2.5 0 0 1 5 0c0 1.12-.74 2.05-1.75 2.37Z" fill="#292D32"/>
</svg>
